icons/vehicle/restriction/turn_restrictions/no_left.svg

<?xml version="1.0" encoding="UTF-8" standalone="no"?>
<!-- Created with Inkscape (http://www.inkscape.org/) -->

<svg
   xmlns:dc="http://purl.org/dc/elements/1.1/"
   xmlns:cc="http://creativecommons.org/ns#"
   xmlns:rdf="http://www.w3.org/1999/02/22-rdf-syntax-ns#"
   xmlns:svg="http://www.w3.org/2000/svg"
   xmlns="http://www.w3.org/2000/svg"
   xmlns:sodipodi="http://sodipodi.sourceforge.net/DTD/sodipodi-0.dtd"
   xmlns:inkscape="http://www.inkscape.org/namespaces/inkscape"
   width="743.47229"
   height="743.47229"
   id="svg2"
   sodipodi:version="0.32"
   inkscape:version="0.48.5 r10040"
   sodipodi:docname="no_left.svg"
   inkscape:output_extension="org.inkscape.output.svg.inkscape"
   version="1.0">
  <defs
     id="defs4">
    <inkscape:perspective
       sodipodi:type="inkscape:persp3d"
       inkscape:vp_x="0 : 526.18109 : 1"
       inkscape:vp_y="0 : 1000 : 0"
       inkscape:vp_z="744.09448 : 526.18109 : 1"
       inkscape:persp3d-origin="372.04724 : 350.78739 : 1"
       id="perspective10" />
  </defs>
  <sodipodi:namedview
     id="base"
     pagecolor="#ffffff"
     bordercolor="#666666"
     borderopacity="1.0"
     gridtolerance="10000"
     guidetolerance="10"
     objecttolerance="10"
     inkscape:pageopacity="0.0"
     inkscape:pageshadow="2"
     inkscape:zoom="0.49497475"
     inkscape:cx="330.54707"
     inkscape:cy="124.32418"
     inkscape:document-units="px"
     inkscape:current-layer="layer1"
     showgrid="false"
     inkscape:window-width="1126"
     inkscape:window-height="855"
     inkscape:window-x="523"
     inkscape:window-y="108"
     inkscape:window-maximized="0" />
  <metadata
     id="metadata7">
    <rdf:RDF>
      <cc:Work
         rdf:about="">
        <dc:format>image/svg+xml</dc:format>
        <dc:type
           rdf:resource="http://purl.org/dc/dcmitype/StillImage" />
        <dc:title />
        <cc:license
           rdf:resource="http://creativecommons.org/licenses/publicdomain/" />
      </cc:Work>
      <cc:License
         rdf:about="http://creativecommons.org/licenses/publicdomain/">
        <cc:permits
           rdf:resource="http://creativecommons.org/ns#Reproduction" />
        <cc:permits
           rdf:resource="http://creativecommons.org/ns#Distribution" />
        <cc:permits
           rdf:resource="http://creativecommons.org/ns#DerivativeWorks" />
      </cc:License>
    </rdf:RDF>
  </metadata>
  <g
     inkscape:label="Layer 1"
     inkscape:groupmode="layer"
     id="layer1"
     transform="translate(0, -308.89)">
    <path
       sodipodi:type="arc"
       style="fill: rgb(224, 0, 0); fill-opacity: 1; fill-rule: evenodd; stroke: none; stroke-width: 1px; stroke-linecap: butt; stroke-linejoin: miter; stroke-opacity: 1;"
       id="path2385"
       sodipodi:cx="371.73615"
       sodipodi:cy="680.62604"
       sodipodi:rx="371.73615"
       sodipodi:ry="371.73615"
       d="m 743.47229,680.62604 c 0,205.3042 -166.43194,371.73616 -371.73614,371.73616 C 166.43194,1052.3622 0,885.93024 0,680.62604 0,475.32183 166.43194,308.88989 371.73615,308.88989 c 205.3042,0 371.73614,166.43194 371.73614,371.73615 z"
       transform="matrix(0.707107, -0.707107, 0.707107, 0.707107, -372.396, 462.208)" />
    <path
       sodipodi:type="arc"
       style="fill: rgb(255, 255, 255); fill-opacity: 1; fill-rule: evenodd; stroke: none; stroke-width: 1px; stroke-linecap: butt; stroke-linejoin: miter; stroke-opacity: 1;"
       id="path3161"
       sodipodi:cx="371.73615"
       sodipodi:cy="680.62604"
       sodipodi:rx="371.73615"
       sodipodi:ry="371.73615"
       d="m 743.47229,680.62604 c 0,205.3042 -166.43194,371.73616 -371.73614,371.73616 C 166.43194,1052.3622 0,885.93024 0,680.62604 0,475.32183 166.43194,308.88989 371.73615,308.88989 c 205.3042,0 371.73614,166.43194 371.73614,371.73615 z"
       transform="matrix(0.75, 0, 0, 0.75, 92.934, 170.157)" />
    <path
       style="fill:#000000;fill-opacity:1;fill-rule:evenodd;stroke:none;stroke-width:65;marker:none;visibility:visible;display:inline;overflow:visible"
       d="m 264.65625,148.875 -122.84375,122.84375 122.84375,122.875 0,-91 144.96875,0 c 29.42109,-4e-5 43.77614,7.06711 52.6875,16.75 8.91136,9.68289 14.96876,26.16341 14.96875,52.9375 l 0,201.84375 64.34375,0 0,-201.84375 c 10e-6,-36.67429 -8.60458,-71.11299 -31.96875,-96.5 C 486.29208,251.39424 450.72847,239.24994 409.625,239.25 l -144.96875,0 z"
       transform="translate(0,308.89)"
       id="rect3169"
       sodipodi:nodetypes="cccccsccccsccc"
       inkscape:connector-curvature="0" />
    <rect
       style="opacity: 1; fill: rgb(224, 0, 0); fill-opacity: 1; fill-rule: evenodd; stroke: none; stroke-width: 15; stroke-linecap: round; stroke-linejoin: round; marker: none; stroke-miterlimit: 4; stroke-dasharray: none; stroke-dashoffset: 0pt; stroke-opacity: 1; visibility: visible; display: inline; overflow: visible;"
       id="rect2391"
       width="76.771591"
       height="614.17273"
       x="-256.80396"
       y="437.04608"
       transform="matrix(0.707107, -0.707107, 0.707107, 0.707107, 0, 0)" />
  </g>
</svg>

<?xml version="1.0" encoding="UTF-8" standalone="no"?>
<!-- Created with Inkscape (http://www.inkscape.org/) -->

<svg
   xmlns:dc="http://purl.org/dc/elements/1.1/"
   xmlns:cc="http://creativecommons.org/ns#"
   xmlns:rdf="http://www.w3.org/1999/02/22-rdf-syntax-ns#"
   xmlns:svg="http://www.w3.org/2000/svg"
   xmlns="http://www.w3.org/2000/svg"
   xmlns:sodipodi="http://sodipodi.sourceforge.net/DTD/sodipodi-0.dtd"
   xmlns:inkscape="http://www.inkscape.org/namespaces/inkscape"
   width="743.47229"
   height="743.47229"
   id="svg2"
   sodipodi:version="0.32"
   inkscape:version="0.48.5 r10040"
   sodipodi:docname="no_left.svg"
   inkscape:output_extension="org.inkscape.output.svg.inkscape"
   version="1.0">
  <defs
     id="defs4">
    <inkscape:perspective
       sodipodi:type="inkscape:persp3d"
       inkscape:vp_x="0 : 526.18109 : 1"
       inkscape:vp_y="0 : 1000 : 0"
       inkscape:vp_z="744.09448 : 526.18109 : 1"
       inkscape:persp3d-origin="372.04724 : 350.78739 : 1"
       id="perspective10" />
  </defs>
  <sodipodi:namedview
     id="base"
     pagecolor="#ffffff"
     bordercolor="#666666"
     borderopacity="1.0"
     gridtolerance="10000"
     guidetolerance="10"
     objecttolerance="10"
     inkscape:pageopacity="0.0"
     inkscape:pageshadow="2"
     inkscape:zoom="0.49497475"
     inkscape:cx="330.54707"
     inkscape:cy="124.32418"
     inkscape:document-units="px"
     inkscape:current-layer="layer1"
     showgrid="false"
     inkscape:window-width="1126"
     inkscape:window-height="855"
     inkscape:window-x="523"
     inkscape:window-y="108"
     inkscape:window-maximized="0" />
  <metadata
     id="metadata7">
    <rdf:RDF>
      <cc:Work
         rdf:about="">
        <dc:format>image/svg+xml</dc:format>
        <dc:type
           rdf:resource="http://purl.org/dc/dcmitype/StillImage" />
        <dc:title></dc:title>
        <cc:license
           rdf:resource="http://creativecommons.org/licenses/publicdomain/" />
      </cc:Work>
      <cc:License
         rdf:about="http://creativecommons.org/licenses/publicdomain/">
        <cc:permits
           rdf:resource="http://creativecommons.org/ns#Reproduction" />
        <cc:permits
           rdf:resource="http://creativecommons.org/ns#Distribution" />
        <cc:permits
           rdf:resource="http://creativecommons.org/ns#DerivativeWorks" />
      </cc:License>
    </rdf:RDF>
  </metadata>
  <g
     inkscape:label="Layer 1"
     inkscape:groupmode="layer"
     id="layer1"
     transform="translate(0, -308.89)">
    <path
       sodipodi:type="arc"
       style="fill: rgb(224, 0, 0); fill-opacity: 1; fill-rule: evenodd; stroke: none; stroke-width: 1px; stroke-linecap: butt; stroke-linejoin: miter; stroke-opacity: 1;"
       id="path2385"
       sodipodi:cx="371.73615"
       sodipodi:cy="680.62604"
       sodipodi:rx="371.73615"
       sodipodi:ry="371.73615"
       d="m 743.47229,680.62604 c 0,205.3042 -166.43194,371.73616 -371.73614,371.73616 C 166.43194,1052.3622 0,885.93024 0,680.62604 0,475.32183 166.43194,308.88989 371.73615,308.88989 c 205.3042,0 371.73614,166.43194 371.73614,371.73615 z"
       transform="matrix(0.707107, -0.707107, 0.707107, 0.707107, -372.396, 462.208)" />
    <path
       sodipodi:type="arc"
       style="fill: rgb(255, 255, 255); fill-opacity: 1; fill-rule: evenodd; stroke: none; stroke-width: 1px; stroke-linecap: butt; stroke-linejoin: miter; stroke-opacity: 1;"
       id="path3161"
       sodipodi:cx="371.73615"
       sodipodi:cy="680.62604"
       sodipodi:rx="371.73615"
       sodipodi:ry="371.73615"
       d="m 743.47229,680.62604 c 0,205.3042 -166.43194,371.73616 -371.73614,371.73616 C 166.43194,1052.3622 0,885.93024 0,680.62604 0,475.32183 166.43194,308.88989 371.73615,308.88989 c 205.3042,0 371.73614,166.43194 371.73614,371.73615 z"
       transform="matrix(0.75, 0, 0, 0.75, 92.934, 170.157)" />
    <path
       style="fill: rgb(0, 0, 0); fill-opacity: 1; fill-rule: evenodd; stroke: none; stroke-width: 65; stroke-linecap: butt; stroke-linejoin: miter; marker: none; stroke-miterlimit: 4; stroke-dashoffset: 0pt; stroke-opacity: 1; visibility: visible; display: inline; overflow: visible;"
       d="M 264.65625,148.875 L 141.8125,271.71875 L 264.65625,394.59375 L 264.65625,303.59375 L 409.625,303.59375 C 439.04609,303.59371 453.40114,310.66086 462.3125,320.34375 C 471.22386,330.02664 477.28126,346.50716 477.28125,373.28125 L 477.28125,575.125 L 509.45312,542.95329 L 541.625,575.125 L 541.625,373.28125 C 541.62501,336.60696 533.02042,302.16826 509.65625,276.78125 C 486.29208,251.39424 450.72847,239.24994 409.625,239.25 L 264.65625,239.25 L 264.65625,148.875 z"
       transform="translate(0, 308.89)"
       id="rect3169"
       sodipodi:nodetypes="cccccscccccsccc" />
    <rect
       style="opacity: 1; fill: rgb(224, 0, 0); fill-opacity: 1; fill-rule: evenodd; stroke: none; stroke-width: 15; stroke-linecap: round; stroke-linejoin: round; marker: none; stroke-miterlimit: 4; stroke-dasharray: none; stroke-dashoffset: 0pt; stroke-opacity: 1; visibility: visible; display: inline; overflow: visible;"
       id="rect2391"
       width="76.771591"
       height="614.17273"
       x="-256.80396"
       y="437.04608"
       transform="matrix(0.707107, -0.707107, 0.707107, 0.707107, 0, 0)" />
  </g>
</svg>
